Newaita-dark/apps/16/datovka.svg

<svg height="16" viewBox="0 0 16 16" width="16" xmlns="http://www.w3.org/2000/svg" xmlns:xlink="http://www.w3.org/1999/xlink"><linearGradient id="a" gradientUnits="userSpaceOnUse" x1="7.93826" x2="7.93826" y1="14.0169685" y2="14.67849050002"><stop offset="0" stop-opacity=".27451"/><stop offset="1" stop-opacity="0"/></linearGradient><linearGradient id="b"><stop offset="0" stop-opacity=".313726"/><stop offset=".222222" stop-opacity=".27451"/><stop offset="1" stop-opacity="0"/></linearGradient><radialGradient id="c" cx="450.908936" cy="189.579361" gradientTransform="matrix(.00000009 -.0390662 -.0703192 -.00000005 26.065324 31.797666)" gradientUnits="userSpaceOnUse" r="21.166656" xlink:href="#b"/><radialGradient id="d" cx="450.908936" cy="189.579361" gradientTransform="matrix(-.00000009 .0390662 .0703192 .00000005 -10.188807 -3.763739)" gradientUnits="userSpaceOnUse" r="21.166656" xlink:href="#b"/><radialGradient id="e" cx="450.908936" cy="189.579361" gradientTransform="matrix(-.00000009 -.0390662 .0703192 -.00000005 -10.188807 31.797666)" gradientUnits="userSpaceOnUse" r="21.166656" xlink:href="#b"/><radialGradient id="f" cx="450.908936" cy="189.579361" gradientTransform="matrix(.00000009 .0390662 -.0703192 .00000005 26.065323 -3.76374)" gradientUnits="userSpaceOnUse" r="21.166656" xlink:href="#b"/><linearGradient id="g" gradientUnits="userSpaceOnUse" x1="5.29217449998" x2="5.29217449998" y1="14.0169675" y2="1.44805300003"><stop offset="0" stop-color="#2979ff"/><stop offset="1" stop-color="#42a5f5"/></linearGradient><linearGradient id="h" gradientUnits="userSpaceOnUse" x1="7.9382592" x2="7.93825970441" y1="14.01696600048" y2="1.4480552201"><stop offset="0" stop-color="#ffa726"/><stop offset="1" stop-color="#ffb74d"/></linearGradient><path d="m2.976562 13.96875h9.921876v.734375h-9.921876zm0 0" fill="url(#a)"/><path d="m12.898438 14.015625h1.324218v-.660156h-1.324218zm0 0" fill="url(#c)"/><path d="m2.976562 14.015625h-1.324218v.664063h1.324218zm0 0" fill="url(#d)"/><path d="m2.976562 14.015625h-1.324218v-.660156h1.324218zm0 0" fill="url(#e)"/><path d="m12.898438 14.015625h1.324218v.664063h-1.324218zm0 0" fill="url(#f)"/><path d="m2.316406 1.449219h11.246094c.363281 0 .660156.296875.660156.660156v11.246094c0 .367187-.296875.660156-.660156.660156h-11.246094c-.367187 0-.664062-.292969-.664062-.660156v-11.246094c0-.363281.296875-.660156.664062-.660156zm0 0" fill="url(#g)"/><path d="m6.6875 7.734375-4.960938 4.960937h-.074218v.660157c0 .367187.296875.660156.664062.660156h11.246094c.363281 0 .660156-.292969.660156-.660156v-.660157h-.070312l-4.964844-4.960937-.78125.78125c-.257812.257813-.675781.257813-.9375 0zm0 0" fill-opacity=".078431"/><path d="m2.316406 1.496094c-.367187 0-.664062.292968-.664062.660156v.082031c0-.363281.296875-.660156.664062-.660156h11.246094c.363281 0 .660156.296875.660156.660156v-.082031c0-.367188-.296875-.660156-.660156-.660156zm0 0" fill="#e6e6e6" fill-opacity=".392157"/><path d="m2.316406 13.96875c-.367187 0-.664062-.296875-.664062-.664062v-.082032c0 .367188.296875.664063.664062.664063h11.246094c.363281 0 .660156-.296875.660156-.664063v.082032c0 .367187-.296875.664062-.660156.664062zm0 0" fill-opacity=".196078"/><path d="m2.316406 1.449219c-.367187 0-.664062.292969-.664062.660156v.660156h.074218l5.742188 5.746094c.261719.257813.679688.257813.9375 0l5.746094-5.746094h.070312v-.660156c0-.367187-.296875-.660156-.660156-.660156zm0 0" fill="#fff" fill-opacity=".117647"/><path d="m74.117922-168.629428h359.840637c11.62389 0 21.122983 9.499093 21.122983 21.122983v359.840637c0 11.748878-9.499093 21.122982-21.122983 21.122982h-359.840637c-11.748878 0-21.247971-9.374104-21.247971-21.122982v-359.840637c0-11.62389 9.499093-21.122983 21.247971-21.122983zm0 0" fill="none" stroke="#212121" stroke-linecap="round" stroke-width="3" transform="matrix(.031253 0 0 .031253 0 6.719392)"/><path d="m6.117188 3.578125c-.246094 0-.460938.179687-.503907.425781l-.5 2.734375h2.1875l.125-.691406c.0625-.367187.515625-.574219.769531-.355469l1.234376 1.707032c.101562.085937.140624.222656.113281.363281-.027344.136719-.113281.261719-.238281.34375l-1.835938 1.707031c-.328125.21875-.710938.007812-.644531-.355469l.121093-.695312h-2.199218l-.457032 2.515625c-.058593.316406.1875.609375.507813.609375h2.667969c2.292968 0 4.152344-1.863281 4.152344-4.152344 0-2.292969-1.859376-4.15625-4.152344-4.15625zm0 0" fill="url(#h)"/><path d="m6.117188 3.578125c-.246094 0-.460938.179687-.503907.425781l-.5 2.734375h.042969l.457031-2.515625c.042969-.242187.257813-.421875.503907-.421875h1.347656c2.253906 0 4.09375 1.800781 4.152344 4.042969 0-.039062 0-.074219 0-.109375 0-2.292969-1.859376-4.15625-4.152344-4.15625zm3.421874 4.210937c-.035156.125-.117187.238282-.234374.316407l-1.835938 1.707031c-.269531.175781-.570312.070312-.636719-.171875l-.007812.039063c-.066407.363281.316406.570312.644531.351562l1.835938-1.703125c.125-.082031.210937-.207031.238281-.34375.015625-.066406.011719-.136719-.003907-.195313zm-4.792968.972657-.457032 2.515625c-.011718.070312-.011718.140625.003907.203125l.453125-2.496094h2.160156l.039062-.222656zm0 0" fill="#fff" fill-opacity=".392157"/><path d="m7.949219 5.601562c-.230469 0-.476563.183594-.523438.445313l-.125.691406h-2.125l-.0625.332031h2.1875l.125-.695312c.0625-.363281.515625-.570312.769531-.351562l1.234376 1.703124c.039062.035157.066406.074219.089843.117188.007813-.023438.019531-.050781.023438-.082031.027343-.140625-.011719-.277344-.113281-.363281l-1.234376-1.707032c-.070312-.0625-.15625-.089844-.246093-.089844zm3.667969 2.296876c-.089844 2.214843-1.914063 3.988281-4.152344 3.988281h-2.667969c-.234375 0-.425781-.15625-.492187-.363281l-.015626.085937c-.058593.316406.1875.605469.507813.605469h2.667969c2.292968 0 4.152344-1.859375 4.152344-4.152344 0-.054688 0-.109375 0-.164062zm-4.730469 1.195312-.0625.363281c-.015625.082031-.007813.15625.019531.222657l.101562-.585938zm0 0" fill-opacity=".235294"/><path d="m739.771914 432.714606c-29.760939 0-55.742711 21.73021-60.939066 51.491149l-60.46667 330.6771h264.541681l15.116667-83.614067c7.558334-44.40521 62.356254-69.442191 93.061984-42.988023l149.277092 206.43699c12.282292 10.392709 17.006251 26.926564 13.699479 43.932815-3.306771 16.533855-13.699479 31.650523-28.816147 41.570836l-222.026053 206.43699c-39.681252 26.454168-85.976046.944791-77.945317-42.988023l14.644272-84.086463h-265.958868l-55.270316 304.222933c-7.085938 38.264064 22.675001 73.693753 61.411462 73.693753h322.646371c277.296369 0 502.156797-225.332824 502.156797-502.156797 0-277.296369-224.860428-502.629193-502.156797-502.629193zm0 0" fill="none" stroke="#212121" stroke-linecap="round" stroke-linejoin="round" stroke-width="11.338583" transform="scale(.00826902)"/></svg>

<?xml version="1.0" encoding="UTF-8"?>
<svg xmlns="http://www.w3.org/2000/svg" xmlns:xlink="http://www.w3.org/1999/xlink" width="16px" height="16px" viewBox="0 0 16 16" version="1.1">
<defs>
<linearGradient id="linear0" gradientUnits="userSpaceOnUse" x1="254" y1="233.5" x2="254" y2="254.666672" gradientTransform="matrix(0.031253,0,0,0.031253,-0.00000190753,6.719393)">
<stop offset="0" style="stop-color:rgb(0%,0%,0%);stop-opacity:0.27451;"/>
<stop offset="1" style="stop-color:rgb(0%,0%,0%);stop-opacity:0;"/>
</linearGradient>
<radialGradient id="radial0" gradientUnits="userSpaceOnUse" cx="450.908936" cy="189.579361" fx="450.908936" fy="189.579361" r="21.166656" gradientTransform="matrix(0.0000000870852,-0.0390662,-0.0703192,-0.0000000507693,26.065324,31.797666)">
<stop offset="0" style="stop-color:rgb(0%,0%,0%);stop-opacity:0.313726;"/>
<stop offset="0.222222" style="stop-color:rgb(0%,0%,0%);stop-opacity:0.27451;"/>
<stop offset="1" style="stop-color:rgb(0%,0%,0%);stop-opacity:0;"/>
</radialGradient>
<radialGradient id="radial1" gradientUnits="userSpaceOnUse" cx="450.908936" cy="189.579361" fx="450.908936" fy="189.579361" r="21.166656" gradientTransform="matrix(-0.0000000870852,0.0390662,0.0703192,0.0000000507693,-10.188807,-3.763739)">
<stop offset="0" style="stop-color:rgb(0%,0%,0%);stop-opacity:0.313726;"/>
<stop offset="0.222222" style="stop-color:rgb(0%,0%,0%);stop-opacity:0.27451;"/>
<stop offset="1" style="stop-color:rgb(0%,0%,0%);stop-opacity:0;"/>
</radialGradient>
<radialGradient id="radial2" gradientUnits="userSpaceOnUse" cx="450.908936" cy="189.579361" fx="450.908936" fy="189.579361" r="21.166656" gradientTransform="matrix(-0.0000000870852,-0.0390662,0.0703192,-0.0000000507693,-10.188807,31.797666)">
<stop offset="0" style="stop-color:rgb(0%,0%,0%);stop-opacity:0.313726;"/>
<stop offset="0.222222" style="stop-color:rgb(0%,0%,0%);stop-opacity:0.27451;"/>
<stop offset="1" style="stop-color:rgb(0%,0%,0%);stop-opacity:0;"/>
</radialGradient>
<radialGradient id="radial3" gradientUnits="userSpaceOnUse" cx="450.908936" cy="189.579361" fx="450.908936" fy="189.579361" r="21.166656" gradientTransform="matrix(0.0000000870852,0.0390662,-0.0703192,0.0000000507693,26.065323,-3.76374)">
<stop offset="0" style="stop-color:rgb(0%,0%,0%);stop-opacity:0.313726;"/>
<stop offset="0.222222" style="stop-color:rgb(0%,0%,0%);stop-opacity:0.27451;"/>
<stop offset="1" style="stop-color:rgb(0%,0%,0%);stop-opacity:0;"/>
</radialGradient>
<linearGradient id="linear1" gradientUnits="userSpaceOnUse" x1="169.333328" y1="233.5" x2="169.333328" y2="-168.666656" gradientTransform="matrix(0.031253,0,0,0.031253,0,6.719392)">
<stop offset="0" style="stop-color:rgb(16.078432%,47.450981%,100%);stop-opacity:1;"/>
<stop offset="1" style="stop-color:rgb(25.882354%,64.705884%,96.078432%);stop-opacity:1;"/>
</linearGradient>
<linearGradient id="linear2" gradientUnits="userSpaceOnUse" x1="960" y1="1695.118164" x2="960.000061" y2="175.118118" gradientTransform="matrix(0.00826902,0,0,0.00826902,0,0)">
<stop offset="0" style="stop-color:rgb(100%,65.490198%,14.901961%);stop-opacity:1;"/>
<stop offset="1" style="stop-color:rgb(100%,71.764708%,30.19608%);stop-opacity:1;"/>
</linearGradient>
</defs>
<g id="surface1">
<path style=" stroke:none;fill-rule:nonzero;fill:url(#linear0);" d="M 2.976562 13.96875 L 12.898438 13.96875 L 12.898438 14.703125 L 2.976562 14.703125 Z M 2.976562 13.96875 "/>
<path style=" stroke:none;fill-rule:nonzero;fill:url(#radial0);" d="M 12.898438 14.015625 L 14.222656 14.015625 L 14.222656 13.355469 L 12.898438 13.355469 Z M 12.898438 14.015625 "/>
<path style=" stroke:none;fill-rule:nonzero;fill:url(#radial1);" d="M 2.976562 14.015625 L 1.652344 14.015625 L 1.652344 14.679688 L 2.976562 14.679688 Z M 2.976562 14.015625 "/>
<path style=" stroke:none;fill-rule:nonzero;fill:url(#radial2);" d="M 2.976562 14.015625 L 1.652344 14.015625 L 1.652344 13.355469 L 2.976562 13.355469 Z M 2.976562 14.015625 "/>
<path style=" stroke:none;fill-rule:nonzero;fill:url(#radial3);" d="M 12.898438 14.015625 L 14.222656 14.015625 L 14.222656 14.679688 L 12.898438 14.679688 Z M 12.898438 14.015625 "/>
<path style=" stroke:none;fill-rule:nonzero;fill:url(#linear1);" d="M 2.316406 1.449219 L 13.5625 1.449219 C 13.925781 1.449219 14.222656 1.746094 14.222656 2.109375 L 14.222656 13.355469 C 14.222656 13.722656 13.925781 14.015625 13.5625 14.015625 L 2.316406 14.015625 C 1.949219 14.015625 1.652344 13.722656 1.652344 13.355469 L 1.652344 2.109375 C 1.652344 1.746094 1.949219 1.449219 2.316406 1.449219 Z M 2.316406 1.449219 "/>
<path style=" stroke:none;fill-rule:nonzero;fill:rgb(0%,0%,0%);fill-opacity:0.0784314;" d="M 6.6875 7.734375 L 1.726562 12.695312 L 1.652344 12.695312 L 1.652344 13.355469 C 1.652344 13.722656 1.949219 14.015625 2.316406 14.015625 L 13.5625 14.015625 C 13.925781 14.015625 14.222656 13.722656 14.222656 13.355469 L 14.222656 12.695312 L 14.152344 12.695312 L 9.1875 7.734375 L 8.40625 8.515625 C 8.148438 8.773438 7.730469 8.773438 7.46875 8.515625 Z M 6.6875 7.734375 "/>
<path style=" stroke:none;fill-rule:nonzero;fill:rgb(90.196079%,90.196079%,90.196079%);fill-opacity:0.392157;" d="M 2.316406 1.496094 C 1.949219 1.496094 1.652344 1.789062 1.652344 2.15625 L 1.652344 2.238281 C 1.652344 1.875 1.949219 1.578125 2.316406 1.578125 L 13.5625 1.578125 C 13.925781 1.578125 14.222656 1.875 14.222656 2.238281 L 14.222656 2.15625 C 14.222656 1.789062 13.925781 1.496094 13.5625 1.496094 Z M 2.316406 1.496094 "/>
<path style=" stroke:none;fill-rule:nonzero;fill:rgb(0%,0%,0%);fill-opacity:0.196078;" d="M 2.316406 13.96875 C 1.949219 13.96875 1.652344 13.671875 1.652344 13.304688 L 1.652344 13.222656 C 1.652344 13.589844 1.949219 13.886719 2.316406 13.886719 L 13.5625 13.886719 C 13.925781 13.886719 14.222656 13.589844 14.222656 13.222656 L 14.222656 13.304688 C 14.222656 13.671875 13.925781 13.96875 13.5625 13.96875 Z M 2.316406 13.96875 "/>
<path style=" stroke:none;fill-rule:nonzero;fill:rgb(100%,100%,100%);fill-opacity:0.117647;" d="M 2.316406 1.449219 C 1.949219 1.449219 1.652344 1.742188 1.652344 2.109375 L 1.652344 2.769531 L 1.726562 2.769531 L 7.46875 8.515625 C 7.730469 8.773438 8.148438 8.773438 8.40625 8.515625 L 14.152344 2.769531 L 14.222656 2.769531 L 14.222656 2.109375 C 14.222656 1.742188 13.925781 1.449219 13.5625 1.449219 Z M 2.316406 1.449219 "/>
<path style="fill:none;stroke-width:3;stroke-linecap:round;stroke-linejoin:miter;stroke:rgb(12.941177%,12.941177%,12.941177%);stroke-opacity:1;stroke-miterlimit:4;" d="M 74.117922 -168.629428 L 433.958559 -168.629428 C 445.582449 -168.629428 455.081542 -159.130335 455.081542 -147.506445 L 455.081542 212.334192 C 455.081542 224.08307 445.582449 233.457174 433.958559 233.457174 L 74.117922 233.457174 C 62.369044 233.457174 52.869951 224.08307 52.869951 212.334192 L 52.869951 -147.506445 C 52.869951 -159.130335 62.369044 -168.629428 74.117922 -168.629428 Z M 74.117922 -168.629428 " transform="matrix(0.031253,0,0,0.031253,0,6.719392)"/>
<path style=" stroke:none;fill-rule:nonzero;fill:url(#linear2);" d="M 6.117188 3.578125 C 5.871094 3.578125 5.65625 3.757812 5.613281 4.003906 L 5.113281 6.738281 L 7.300781 6.738281 L 7.425781 6.046875 C 7.488281 5.679688 7.941406 5.472656 8.195312 5.691406 L 9.429688 7.398438 C 9.53125 7.484375 9.570312 7.621094 9.542969 7.761719 C 9.515625 7.898438 9.429688 8.023438 9.304688 8.105469 L 7.46875 9.8125 C 7.140625 10.03125 6.757812 9.820312 6.824219 9.457031 L 6.945312 8.761719 L 4.746094 8.761719 L 4.289062 11.277344 C 4.230469 11.59375 4.476562 11.886719 4.796875 11.886719 L 7.464844 11.886719 C 9.757812 11.886719 11.617188 10.023438 11.617188 7.734375 C 11.617188 5.441406 9.757812 3.578125 7.464844 3.578125 Z M 6.117188 3.578125 "/>
<path style=" stroke:none;fill-rule:nonzero;fill:rgb(100%,100%,100%);fill-opacity:0.392157;" d="M 6.117188 3.578125 C 5.871094 3.578125 5.65625 3.757812 5.613281 4.003906 L 5.113281 6.738281 L 5.15625 6.738281 L 5.613281 4.222656 C 5.65625 3.980469 5.871094 3.800781 6.117188 3.800781 L 7.464844 3.800781 C 9.71875 3.800781 11.558594 5.601562 11.617188 7.84375 C 11.617188 7.804688 11.617188 7.769531 11.617188 7.734375 C 11.617188 5.441406 9.757812 3.578125 7.464844 3.578125 Z M 9.539062 7.789062 C 9.503906 7.914062 9.421875 8.027344 9.304688 8.105469 L 7.46875 9.8125 C 7.199219 9.988281 6.898438 9.882812 6.832031 9.640625 L 6.824219 9.679688 C 6.757812 10.042969 7.140625 10.25 7.46875 10.03125 L 9.304688 8.328125 C 9.429688 8.246094 9.515625 8.121094 9.542969 7.984375 C 9.558594 7.917969 9.554688 7.847656 9.539062 7.789062 Z M 4.746094 8.761719 L 4.289062 11.277344 C 4.277344 11.347656 4.277344 11.417969 4.292969 11.480469 L 4.746094 8.984375 L 6.90625 8.984375 L 6.945312 8.761719 Z M 4.746094 8.761719 "/>
<path style=" stroke:none;fill-rule:nonzero;fill:rgb(0%,0%,0%);fill-opacity:0.235294;" d="M 7.949219 5.601562 C 7.71875 5.601562 7.472656 5.785156 7.425781 6.046875 L 7.300781 6.738281 L 5.175781 6.738281 L 5.113281 7.070312 L 7.300781 7.070312 L 7.425781 6.375 C 7.488281 6.011719 7.941406 5.804688 8.195312 6.023438 L 9.429688 7.726562 C 9.46875 7.761719 9.496094 7.800781 9.519531 7.84375 C 9.527344 7.820312 9.539062 7.792969 9.542969 7.761719 C 9.570312 7.621094 9.53125 7.484375 9.429688 7.398438 L 8.195312 5.691406 C 8.125 5.628906 8.039062 5.601562 7.949219 5.601562 Z M 11.617188 7.898438 C 11.527344 10.113281 9.703125 11.886719 7.464844 11.886719 L 4.796875 11.886719 C 4.5625 11.886719 4.371094 11.730469 4.304688 11.523438 L 4.289062 11.609375 C 4.230469 11.925781 4.476562 12.214844 4.796875 12.214844 L 7.464844 12.214844 C 9.757812 12.214844 11.617188 10.355469 11.617188 8.0625 C 11.617188 8.007812 11.617188 7.953125 11.617188 7.898438 Z M 6.886719 9.09375 L 6.824219 9.457031 C 6.808594 9.539062 6.816406 9.613281 6.84375 9.679688 L 6.945312 9.09375 Z M 6.886719 9.09375 "/>
<path style="fill:none;stroke-width:11.338583;stroke-linecap:round;stroke-linejoin:round;stroke:rgb(12.941177%,12.941177%,12.941177%);stroke-opacity:1;stroke-miterlimit:4;" d="M 739.771914 432.714606 C 710.010975 432.714606 684.029203 454.444816 678.832848 484.205755 L 618.366178 814.882855 L 882.907859 814.882855 L 898.024526 731.268788 C 905.58286 686.863578 960.38078 661.826597 991.08651 688.280765 L 1140.363602 894.717755 C 1152.645894 905.110464 1157.369853 921.644319 1154.063081 938.65057 C 1150.75631 955.184425 1140.363602 970.301093 1125.246934 980.221406 L 903.220881 1186.658396 C 863.539629 1213.112564 817.244835 1187.603187 825.275564 1143.670373 L 839.919836 1059.58391 L 573.960968 1059.58391 L 518.690652 1363.806843 C 511.604714 1402.070907 541.365653 1437.500596 580.102114 1437.500596 L 902.748485 1437.500596 C 1180.044854 1437.500596 1404.905282 1212.167772 1404.905282 935.343799 C 1404.905282 658.04743 1180.044854 432.714606 902.748485 432.714606 Z M 739.771914 432.714606 " transform="matrix(0.00826902,0,0,0.00826902,0,0)"/>
</g>
</svg>
